
  @1:{
   7,  3
  31,  0,  0, 15,  0, 34,  0,  8,  0;K12
  31,  0,  0, 15,  0, 60,  0,  8,  0;K12
  31,  0,  0, 15,  0, 56,  0,  1,  0
  31,  0,  0, 15,  0,  0,  0,  0,  0,""}

# *0{C192o4q2}
# *30{l1[r]4}
# *31{l12[g^rg>gd<g^rg>d<g [b-^rb->f<b-]2]3 [g^r>d<gg]4}
# *32{[cgcc^r]16}
# *33{[[e-^re-ce-]2[d^rd<b->d]2]2}
# *34{g^r<a^rb^r>c^rd^re^rg-^rg^ra-^ra-e-c<a-^r>>c<b-a-d^rd^rc^r<b-^r>[a^r]4 [a12]12}
# *39{*30*31*32*33*34}

1 t227 @1pC L
1 *0 K12   *39
2 *0 K12   *39
3 *0       *39
4 *0 yTL,0 *39
